src/main/resources/org/wip/moneymanager/svg/Star_empty.svg

<svg width="16" height="16" viewBox="0 0 16 16" fill="none" xmlns="http://www.w3.org/2000/svg">
<path d="M7.1939 2.10167C7.52403 1.43275 8.47789 1.43274 8.80802 2.10167L10.3291 5.18372L13.7304 5.67795C14.4685 5.78522 14.7633 6.69239 14.2291 7.21307L11.768 9.61212L12.349 12.9996C12.4751 13.7348 11.7034 14.2955 11.0431 13.9484L8.00096 12.349L4.95879 13.9484C4.29853 14.2955 3.52684 13.7348 3.65294 12.9996L4.23394 9.61212L1.77277 7.21307C1.23861 6.69239 1.53336 5.78522 2.27156 5.67795L5.67281 5.18372L7.1939 2.10167ZM8.00096 2.72593L6.54628 5.67343C6.41519 5.93906 6.16178 6.12317 5.86864 6.16577L2.61588 6.63842L4.9696 8.93273C5.18171 9.13949 5.27851 9.43739 5.22843 9.72935L4.6728 12.969L7.58215 11.4394C7.84434 11.3016 8.15758 11.3016 8.41977 11.4394L11.3291 12.969L10.7735 9.72935C10.7234 9.43739 10.8202 9.13949 11.0323 8.93273L13.386 6.63842L10.1333 6.16577C9.84014 6.12317 9.58673 5.93906 9.45564 5.67343L8.00096 2.72593Z" fill="white"/>
</svg>

<svg xmlns="http://www.w3.org/2000/svg" width="16" height="16" viewBox="0 0 16 16"><path  d="M7.194 2.101a.9.9 0 0 1 1.614 0l1.521 3.082l3.401.495a.9.9 0 0 1 .5 1.535l-2.462 2.399l.581 3.387a.9.9 0 0 1-1.306.949l-3.042-1.6l-3.042 1.6a.9.9 0 0 1-1.306-.949l.58-3.387l-2.46-2.4a.9.9 0 0 1 .499-1.534l3.4-.495zM8 2.726L6.546 5.673a.9.9 0 0 1-.677.492l-3.253.473L4.97 8.932a.9.9 0 0 1 .258.797l-.555 3.24l2.91-1.53a.9.9 0 0 1 .837 0l2.91 1.53l-.556-3.24a.9.9 0 0 1 .258-.797l2.354-2.294l-3.253-.473a.9.9 0 0 1-.677-.492z" fill="#212121"/></svg>
